hfg.svg

<svg width="174" height="17" viewBox="0 0 174 17" fill="none" xmlns="http://www.w3.org/2000/svg">
<path d="M2.8 15.8586H0V0.558594H2.8V7.07859H9.62V0.558594H12.42V15.8586H9.62V9.29859H2.8V15.8586Z" fill="white"/>
<path d="M128.6 15.86H125.94V7.12H124.28V5.2H125.94V3.44C125.94 0.84 127.38 0 129.58 0C130.26 0 130.8 0.08 131 0.12V2.08C130.88 2.06 130.54 2 130.06 2C129.1 2 128.6 2.4 128.6 3.62V5.2H130.84V7.12H128.6V15.86Z" fill="white"/>
<path d="M162.52 8.29984C162.52 12.2998 164.06 14.0998 166.64 14.0998C169.02 14.0998 170.42 12.6798 170.52 10.2198L170.54 9.95984H166.64V7.85984H173.16V15.8598H170.9V13.7398H170.84C170.1 15.0998 168.6 16.1798 166.26 16.1798C162.08 16.1798 159.56 13.3398 159.56 8.37984C159.56 3.39984 162.5 0.339844 166.72 0.339844C170.2 0.339844 172.44 2.01984 172.8 4.97984H169.96C169.74 3.41984 168.46 2.39984 166.72 2.39984C164 2.39984 162.52 4.55984 162.52 8.29984Z" fill="white"/>
</svg>

<svg version="1.2" xmlns="http://www.w3.org/2000/svg" viewBox="0 0 174 17" width="174" height="17"><style>.a{fill:#fff}</style><path class="a" d="m2.8 15.9h-2.8v-15.3h2.8v6.5h6.8v-6.5h2.8v15.3h-2.8v-6.6h-6.8z"/><path class="a" d="m128.6 15.9h-2.7v-8.8h-1.6v-1.9h1.6v-1.8c0-2.6 1.5-3.4 3.7-3.4 0.7 0 1.2 0.1 1.4 0.1v2c-0.1 0-0.5-0.1-0.9-0.1-1 0-1.5 0.4-1.5 1.6v1.6h2.2v1.9h-2.2z"/><path class="a" d="m162.5 8.3c0 4 1.6 5.8 4.1 5.8 2.4 0 3.8-1.4 3.9-3.9v-0.2h-3.9v-2.1h6.6v8h-2.3v-2.2h-0.1c-0.7 1.4-2.2 2.5-4.5 2.5-4.2 0-6.7-2.9-6.7-7.8 0-5 2.9-8.1 7.1-8.1 3.5 0 5.7 1.7 6.1 4.7h-2.8c-0.3-1.6-1.5-2.6-3.3-2.6-2.7 0-4.2 2.2-4.2 5.9z"/></svg>
